svgs/thin/bone-break.svg

<svg xmlns="http://www.w3.org/2000/svg" viewBox="0 0 640 512"><!--! Font Awesome Pro 6.3.0 by @fontawesome - https://fontawesome.com License - https://fontawesome.com/license (Commercial License) Copyright 2023 Fonticons, Inc. --><path d="M242.3 157.7C243.9 159.2 245.9 160 247.1 160S252.1 159.2 253.7 157.7c3.125-3.125 3.125-8.188 0-11.31l-80-80c-3.125-3.125-8.188-3.125-11.31 0s-3.125 8.188 0 11.31L242.3 157.7zM391.1 160c2.062 0 4.094-.7813 5.656-2.344l80-80c3.125-3.125 3.125-8.188 0-11.31s-8.188-3.125-11.31 0l-80 80c-3.125 3.125-3.125 8.188 0 11.31C387.9 159.2 389.9 160 391.1 160zM319.1 0C315.6 0 311.1 3.578 311.1 8v112c0 4.422 3.592 7.997 7.998 7.997S327.1 124.4 327.1 120v-112C327.1 3.578 324.4 0 319.1 0zM284.9 371.1l-70.73 21.28c-24.16 5.426-42.03 25.83-44.46 50.78c-2.561 25.32-20.79 45.86-45.38 51.38c-4.137 .9297-8.424 1.418-12.74 1.451c-27.05 .209-51.32-20.3-57.71-48.78L52.89 442.9c-4.895-21.79 2.773-44 20.01-57.96c8.541-7.047 12.28-18.01 9.883-28.7c-2.4-10.69-10.47-19-21.06-21.68c-21.69-5.281-38.12-22.08-43.02-43.87L17.74 286.5c-6.395-28.47 6.777-57.39 31.32-68.77c3.92-1.814 8.002-3.207 12.14-4.135C85.79 208 111 218.8 124 240.4c13.07 21.84 37.89 32.55 62.05 27.13l88.22-19.81c4.449-1 7.166-5.512 5.965-9.91C279.2 233.6 274.1 231.1 270.8 232.1L182.9 251.8C165.4 255.7 147.3 248 138.1 232.6L137.7 232.1c-16.54-27.42-48.83-41.17-80.05-34.16c-5.293 1.188-10.56 2.973-15.71 5.391c-31.88 14.96-47.78 51.35-40.06 85.71l1.168 5.201c6.191 27.56 27.32 49.21 54.7 55.87c10.19 2.58 13.15 15.75 5.041 22.44c-21.9 17.73-31.74 46.33-25.55 73.9l1.172 5.217c7.73 34.43 37.78 60.53 73.06 60.33c5.617-.0313 11.07-.666 16.3-1.84c31.22-7.012 54.54-33.26 57.76-65.11l.0313-.3281c1.713-18 14.81-32.86 32.45-36.82l70.32-21.18c4.502-1.012 7.217-5.609 5.93-10.04C293.1 372.6 288.1 370.2 284.9 371.1zM598 203.3c-5.148-2.418-10.41-4.203-15.71-5.391c-31.22-7.012-63.52 6.742-80.05 34.16L501.9 232.6c-9.248 15.39-27.32 23.13-44.85 19.2l-87.91-19.74c-4.174-.9355-8.346 1.576-9.471 5.703C358.5 242.2 361.2 246.7 365.7 247.7l88.22 19.81c24.15 5.424 48.98-5.291 62.05-27.13c13-21.56 38.26-32.34 62.85-26.81c4.139 .9277 8.221 2.32 12.14 4.135c24.54 11.38 37.71 40.3 31.32 68.77L621.3 290.7c-4.895 21.79-21.32 38.59-43.02 43.87c-10.59 2.684-18.66 10.99-21.06 21.68c-2.4 10.69 1.342 21.65 9.883 28.7c17.24 13.96 24.91 36.16 20.01 57.96l-.9609 4.279c-6.395 28.47-30.67 48.98-57.71 48.78c-4.318-.0332-8.605-.5215-12.74-1.451c-24.59-5.521-42.81-26.06-45.38-51.38c-2.432-24.95-20.3-45.36-44.46-50.78l-70.73-21.28c-4.123-.9258-8.254 1.514-9.436 5.572c-1.287 4.432 1.428 9.029 5.93 10.04l70.32 21.18c17.64 3.961 30.73 18.82 32.45 36.82l.0313 .3281c3.223 31.86 26.54 58.1 57.76 65.11c5.23 1.174 10.68 1.809 16.3 1.84c35.29 .1934 65.33-25.9 73.06-60.33l1.172-5.217c6.189-27.56-3.656-56.17-25.55-73.9c-8.105-6.688-5.148-19.86 5.041-22.44c27.38-6.662 48.51-28.31 54.7-55.87l1.168-5.201C645.8 254.7 629.9 218.3 598 203.3z"/></svg>

<svg xmlns="http://www.w3.org/2000/svg" viewBox="0 0 640 512"><!-- Font Awesome Pro 6.0.0-alpha2 by @fontawesome - https://fontawesome.com License - https://fontawesome.com/license (Commercial License) --><path d="M242.344 157.656C243.907 159.219 245.938 160 248 160S252.094 159.219 253.657 157.656C256.782 154.531 256.782 149.469 253.657 146.344L173.657 66.344C170.532 63.219 165.469 63.219 162.344 66.344S159.219 74.531 162.344 77.656L242.344 157.656ZM392 160C394.063 160 396.094 159.219 397.657 157.656L477.657 77.656C480.782 74.531 480.782 69.469 477.657 66.344S469.469 63.219 466.344 66.344L386.344 146.344C383.219 149.469 383.219 154.531 386.344 157.656C387.907 159.219 389.938 160 392 160ZM320 0C315.594 0 312 3.578 312 8V120C312 124.422 315.594 128 320 128S328 124.422 328 120V8C328 3.578 324.407 0 320 0ZM284.864 371.105L214.137 392.381C189.977 397.807 172.112 418.215 169.68 443.164C167.12 468.484 148.895 489.025 124.305 494.547C120.168 495.477 115.881 495.965 111.563 495.998C84.514 496.207 60.243 475.695 53.848 447.223L52.887 442.943C47.993 421.15 55.661 398.943 72.899 384.986C81.44 377.939 85.182 366.979 82.782 356.285C80.381 345.594 72.309 337.285 61.719 334.602C40.026 329.32 23.598 312.525 18.704 290.734L17.743 286.453C11.348 257.98 24.52 229.061 49.059 217.682C52.979 215.867 57.061 214.475 61.2 213.547C85.79 208.023 111.045 218.801 124.047 240.359C137.118 262.199 161.94 272.914 186.094 267.49L274.317 247.678C278.766 246.678 281.483 242.166 280.282 237.768C279.157 233.641 274.985 231.129 270.811 232.064L182.903 251.807C165.379 255.742 147.305 248.006 138.057 232.611L137.748 232.098C121.213 204.678 88.916 190.924 57.694 197.936C52.401 199.123 47.135 200.908 41.987 203.326C10.11 218.291 -5.789 254.68 1.924 289.039L3.092 294.24C9.284 321.803 30.415 343.449 57.79 350.111C67.979 352.691 70.936 365.865 62.831 372.553C40.932 390.281 31.086 418.885 37.276 446.449L38.448 451.666C46.178 486.096 76.225 512.191 111.51 511.998C117.127 511.967 122.581 511.332 127.811 510.158C159.034 503.146 182.35 476.9 185.573 445.045L185.604 444.717C187.317 426.717 200.411 411.861 218.051 407.9L288.37 386.719C292.872 385.707 295.586 381.109 294.299 376.678C293.118 372.619 288.987 370.18 284.864 371.105ZM598.014 203.326C592.866 200.908 587.6 199.123 582.307 197.936C551.084 190.924 518.788 204.678 502.252 232.098L501.944 232.611C492.696 248.006 474.622 255.742 457.098 251.807L369.19 232.064C365.016 231.129 360.844 233.641 359.719 237.768C358.518 242.166 361.235 246.678 365.684 247.678L453.907 267.49C478.061 272.914 502.883 262.199 515.954 240.359C528.956 218.801 554.211 208.023 578.801 213.547C582.94 214.475 587.022 215.867 590.942 217.682C615.481 229.061 628.653 257.98 622.258 286.453L621.297 290.734C616.403 312.525 599.975 329.32 578.282 334.602C567.692 337.285 559.62 345.594 557.219 356.285C554.819 366.979 558.561 377.939 567.102 384.986C584.34 398.943 592.008 421.15 587.114 442.943L586.153 447.223C579.758 475.695 555.487 496.207 528.438 495.998C524.12 495.965 519.832 495.477 515.696 494.547C491.106 489.025 472.881 468.484 470.321 443.164C467.889 418.215 450.024 397.807 425.864 392.381L355.137 371.105C351.014 370.18 346.883 372.619 345.702 376.678C344.414 381.109 347.129 385.707 351.631 386.719L421.95 407.9C439.59 411.861 452.684 426.717 454.397 444.717L454.428 445.045C457.651 476.9 480.967 503.146 512.19 510.158C517.42 511.332 522.874 511.967 528.491 511.998C563.776 512.191 593.823 486.096 601.553 451.666L602.725 446.449C608.915 418.885 599.069 390.281 577.17 372.553C569.065 365.865 572.022 352.691 582.211 350.111C609.586 343.449 630.717 321.803 636.909 294.24L638.077 289.039C645.79 254.68 629.891 218.291 598.014 203.326Z"/></svg>
